X: 1272
T: Dillon's Fancy
M:C|
L:1/8
R:Reel
B:O'Neill's 1272
N:Collected by Dillon
Z:Transcribed by Trish O'Neil
K:A
EAAc eA (3cBA | ceae (3fga ed |1 cdef edcA | (3Bcd cA BF {G}(3FEF :|2 cefg agaf | edcB Aceg ||
{b}aece {b}aece | agbg aece | {b}aece {b}aecA | BABc defg |
{b}aece {b}aece | agbg aece | (A/2B/2c/2d/2 e/2f/2g) agaf | edcB ABAF |]


